assets/img/i-coins.svg

<?xml version="1.0" encoding="UTF-8" standalone="no"?>
<svg
   xmlns:dc="http://purl.org/dc/elements/1.1/"
   xmlns:cc="http://creativecommons.org/ns#"
   xmlns:rdf="http://www.w3.org/1999/02/22-rdf-syntax-ns#"
   xmlns:svg="http://www.w3.org/2000/svg"
   xmlns="http://www.w3.org/2000/svg"
   viewBox="0 0 31.066668 23.280001"
   height="23.280001"
   width="31.066668"
   xml:space="preserve"
   id="svg2"
   version="1.1"><metadata
     id="metadata8"><rdf:RDF><cc:Work
         rdf:about=""><dc:format>image/svg+xml</dc:format><dc:type
           rdf:resource="http://purl.org/dc/dcmitype/StillImage" /></cc:Work></rdf:RDF></metadata><defs
     id="defs6"><clipPath
       id="clipPath20"
       clipPathUnits="userSpaceOnUse"><path
         id="path18"
         d="M 0,174.605 V 0 h 232.973 v 174.605 z" /></clipPath></defs><g
     transform="matrix(1.3333333,0,0,-1.3333333,0,23.28)"
     id="g10"><g
       transform="scale(0.1)"
       id="g12"><g
         id="g14"><g
           clip-path="url(#clipPath20)"
           id="g16"><path
             id="path22"
             style="fill:#33364E;fill-opacity:1;fill-rule:nonzero;stroke:none"
             d="m 97.0742,87.3008 h 19.4098 c 0,-19.3906 12.614,-29.1055 29.121,-29.1055 V 38.8047 c -27.171,0 -48.5308,19.3906 -48.5308,48.4961 z m 48.5308,67.8942 c -37.851,0 -67.9527,-30.054 -67.9527,-67.8942 0,-37.8203 30.1017,-67.8906 67.9527,-67.8906 37.868,0 67.957,30.0703 67.957,67.8906 0,37.8402 -30.089,67.8942 -67.957,67.8942 z M 145.605,0 H 9.69531 V 19.4102 H 91.2461 C 70.8555,38.8047 58.2422,60.1445 58.2422,87.3008 c 0,48.5002 38.832,87.3042 87.3628,87.3042 48.547,0 87.368,-38.804 87.368,-87.3042 C 232.973,38.8047 194.152,0 145.605,0 Z M 0,77.6055 V 97 H 38.8203 V 77.6055 H 0 Z M 63.0898,155.195 H 9.69531 v 19.41 H 84.4492 C 76.6836,164.91 69.8867,164.91 63.0898,155.195 Z M 42.7148,116.41 H 29.1211 v 19.391 h 21.3594 c -2.918,-9.696 -5.8321,-9.696 -7.7657,-19.391 z M 9.69531,38.8047 V 58.1953 H 42.7148 C 44.6484,48.5 47.5625,48.5 50.4805,38.8047 H 9.69531 v 0" /></g></g></g></g></svg>

<svg xmlns="http://www.w3.org/2000/svg" viewBox="0 0 31.066668 23.280001" height="23.28" width="31.067"><defs><clipPath id="a"><path d="M0 174.605V0h232.973v174.605z"/></clipPath></defs><g clip-path="url(#a)" transform="matrix(.13333 0 0 -.13333 0 23.28)"><path d="M97.074 87.3h19.41c0-19.39 12.614-29.105 29.121-29.105v-19.39c-27.171 0-48.53 19.39-48.53 48.496zm48.531 67.895c-37.851 0-67.953-30.054-67.953-67.894 0-37.82 30.102-67.89 67.953-67.89 37.868 0 67.957 30.07 67.957 67.89 0 37.84-30.089 67.894-67.957 67.894zm0-155.195H9.695v19.41h81.551C70.856 38.805 58.242 60.145 58.242 87.3c0 48.501 38.832 87.305 87.363 87.305 48.547 0 87.368-38.804 87.368-87.304C232.973 38.805 194.152 0 145.605 0zM0 77.606V97h38.82V77.606H0zm63.09 77.589H9.695v19.41H84.45c-7.765-9.695-14.562-9.695-21.36-19.41zM42.715 116.41H29.12v19.391h21.36c-2.919-9.696-5.833-9.696-7.766-19.391zM9.695 38.805v19.39h33.02c1.933-9.695 4.847-9.695 7.765-19.39H9.696" fill="#33364e"/></g></svg>
